dist/img/menu/menu-icon8.svg

<svg width="23" height="23" viewBox="0 0 23 23" fill="none" xmlns="http://www.w3.org/2000/svg">
<path d="M18.3606 12.3039H10.1961V4.13937C10.1961 3.80944 9.93217 3.5455 9.60225 3.5455C4.44663 3.5455 0.25 7.74214 0.25 12.8978C0.25 18.0534 4.44663 22.25 9.60225 22.25C14.7579 22.25 18.9545 18.0534 18.9545 12.8978C18.9545 12.5722 18.6862 12.3039 18.3606 12.3039ZM9.60225 21.0623C5.10208 21.0623 1.43773 17.3979 1.43773 12.8978C1.43773 8.59554 4.78096 5.05875 9.00838 4.75522V12.8978C9.00838 13.2277 9.27232 13.4916 9.60225 13.4916H17.7448C17.4412 17.719 13.9045 21.0623 9.60225 21.0623Z" fill="#BFC0C4"/>
<path d="M22.2458 9.57146C22.237 7.30158 21.4056 5.11528 19.9055 3.41287C18.1283 1.40253 15.5769 0.25 12.8935 0.25C12.5636 0.25 12.2997 0.513939 12.2997 0.843863V9.60225C12.2997 9.93217 12.5636 10.1961 12.8935 10.1961H21.6519C21.9818 10.1961 22.2458 9.93217 22.2458 9.60225C22.2458 9.59345 22.2458 9.58465 22.2458 9.57146ZM13.4874 9.01278V1.46412C15.6077 1.61809 17.596 2.59906 19.0125 4.20469C20.2002 5.54638 20.9041 7.23559 21.0361 9.01278H13.4874Z" fill="#BFC0C4"/>
<path fill-rule="evenodd" clip-rule="evenodd" d="M12.0497 0.843863C12.0497 0.375868 12.4255 0 12.8935 0C15.6487 0 18.2683 1.1834 20.0928 3.24729C21.6329 4.99507 22.4867 7.24004 22.4958 9.57049L22.4958 9.57153V9.60158C22.4958 10.0696 22.1199 10.4461 21.6519 10.4461H12.8935C12.4255 10.4461 12.0497 10.0702 12.0497 9.60225V0.843863ZM12.8935 0.5C12.7017 0.5 12.5497 0.652011 12.5497 0.843863V9.60225C12.5497 9.7941 12.7017 9.94611 12.8935 9.94611H21.6519C21.8438 9.94611 21.9958 9.7941 21.9958 9.60225V9.57343L21.9958 9.57242C21.9871 7.36329 21.1779 5.23506 19.7179 3.57815C17.9881 1.62156 15.505 0.5 12.8935 0.5ZM13.2374 1.19531L13.5055 1.21478C15.691 1.37347 17.7402 2.38452 19.2 4.0393C20.4243 5.4224 21.1494 7.16336 21.2854 8.99427L21.3053 9.26278H13.2374V1.19531ZM13.7374 1.73755V8.76278H20.7623C20.5864 7.13834 19.9164 5.60292 18.8253 4.3704C17.5121 2.8818 15.6915 1.94678 13.7374 1.73755ZM0 12.8978C0 7.60407 4.30856 3.2955 9.60225 3.2955C10.0702 3.2955 10.4461 3.67137 10.4461 4.13937V12.0539H18.3606C18.8242 12.0539 19.2045 12.4342 19.2045 12.8978C19.2045 18.1914 14.8959 22.5 9.60225 22.5C4.30856 22.5 0 18.1914 0 12.8978ZM9.60225 3.7955C4.58471 3.7955 0.5 7.88021 0.5 12.8978C0.5 17.9153 4.58471 22 9.60225 22C14.6198 22 18.7045 17.9153 18.7045 12.8978C18.7045 12.7103 18.5481 12.5539 18.3606 12.5539H9.94611V4.13937C9.94611 3.94751 9.7941 3.7955 9.60225 3.7955ZM9.25838 4.48663V12.8978C9.25838 13.0896 9.4104 13.2416 9.60225 13.2416H18.0134L17.9941 13.5095C17.6813 17.8668 14.0365 21.3123 9.60225 21.3123C4.96401 21.3123 1.18773 17.536 1.18773 12.8978C1.18773 8.46352 4.63316 4.81872 8.99048 4.50587L9.25838 4.48663ZM8.75838 5.02839C4.78837 5.4493 1.68773 8.81887 1.68773 12.8978C1.68773 17.2598 5.24015 20.8123 9.60225 20.8123C13.6811 20.8123 17.0507 17.7116 17.4716 13.7416H9.60225C9.13425 13.7416 8.75838 13.3657 8.75838 12.8978V5.02839Z" fill="#BFC0C4"/>
</svg>

<svg width="23" height="23" fill="none" xmlns="http://www.w3.org/2000/svg"><path d="M18.36 12.304h-8.164V4.139a.591.591 0 00-.594-.594C4.447 3.546.25 7.742.25 12.899c0 5.155 4.197 9.352 9.352 9.352 5.156 0 9.352-4.197 9.352-9.352a.597.597 0 00-.593-.594zm-8.758 8.758c-4.5 0-8.164-3.664-8.164-8.164 0-4.302 3.343-7.84 7.57-8.143v8.143c0 .33.264.594.594.594h8.143c-.304 4.227-3.84 7.57-8.143 7.57z" fill="#BFC0C4"/><path d="M22.246 9.571a9.367 9.367 0 00-2.34-6.158A9.358 9.358 0 0012.893.25a.591.591 0 00-.594.594v8.758c0 .33.264.594.593.594h8.759c.33 0 .594-.264.594-.594v-.03zm-8.759-.558V1.464a8.162 8.162 0 015.525 2.74 8.157 8.157 0 012.024 4.809h-7.549z" fill="#BFC0C4"/><path fill-rule="evenodd" clip-rule="evenodd" d="M12.05.844A.84.84 0 0112.893 0a9.608 9.608 0 017.2 3.247 9.618 9.618 0 012.403 6.323v.032a.842.842 0 01-.844.844h-8.759a.841.841 0 01-.843-.844V.844zM12.893.5a.341.341 0 00-.343.344v8.758c0 .192.152.344.343.344h8.759a.341.341 0 00.344-.344v-.029a9.118 9.118 0 00-2.278-5.995A9.108 9.108 0 0012.893.5zm.344.695l.268.02A8.412 8.412 0 0119.2 4.039a8.407 8.407 0 012.085 4.955l.02.269h-8.068V1.195zm.5.543v7.025h7.025a7.903 7.903 0 00-1.937-4.393 7.914 7.914 0 00-5.088-2.632zM0 12.898c0-5.294 4.309-9.602 9.602-9.602a.84.84 0 01.844.843v7.915h7.915c.463 0 .843.38.843.844 0 5.293-4.308 9.602-9.602 9.602C4.31 22.5 0 18.191 0 12.898zm9.602-9.102C4.585 3.796.5 7.88.5 12.898.5 17.915 4.585 22 9.602 22c5.018 0 9.102-4.085 9.102-9.102a.347.347 0 00-.343-.344H9.946V4.139a.341.341 0 00-.344-.344zm-.344.69v8.412c0 .192.152.344.344.344h8.411l-.019.267c-.313 4.358-3.957 7.803-8.392 7.803-4.638 0-8.414-3.776-8.414-8.414 0-4.434 3.445-8.08 7.802-8.392l.268-.02zm-.5.542c-3.97.421-7.07 3.79-7.07 7.87 0 4.362 3.552 7.914 7.914 7.914 4.08 0 7.449-3.1 7.87-7.07h-7.87a.841.841 0 01-.844-.844v-7.87z" fill="#BFC0C4"/></svg>
